svg/clouds.svg

<?xml version="1.0" encoding="UTF-8" standalone="no"?>
<!-- Created with Inkscape (http://www.inkscape.org/) -->

<svg
   xmlns:dc="http://purl.org/dc/elements/1.1/"
   xmlns:cc="http://creativecommons.org/ns#"
   xmlns:rdf="http://www.w3.org/1999/02/22-rdf-syntax-ns#"
   xmlns:svg="http://www.w3.org/2000/svg"
   xmlns="http://www.w3.org/2000/svg"
   xmlns:sodipodi="http://sodipodi.sourceforge.net/DTD/sodipodi-0.dtd"
   xmlns:inkscape="http://www.inkscape.org/namespaces/inkscape"
   width="500px"
   height="500px"
   viewBox="0 0 500 500"
   version="1.1"
   id="SVGRoot"
   inkscape:version="0.92.3 (2405546, 2018-03-11)"
   sodipodi:docname="clouds.svg">
  <sodipodi:namedview
     id="base"
     pagecolor="#ffffff"
     bordercolor="#666666"
     borderopacity="1.0"
     inkscape:pageopacity="0.0"
     inkscape:pageshadow="2"
     inkscape:zoom="0.256"
     inkscape:cx="-552.34555"
     inkscape:cy="159.1878"
     inkscape:document-units="px"
     inkscape:current-layer="layer1"
     showgrid="false"
     inkscape:window-width="1853"
     inkscape:window-height="1025"
     inkscape:window-x="67"
     inkscape:window-y="27"
     inkscape:window-maximized="1" />
  <defs
     id="defs874" />
  <metadata
     id="metadata877">
    <rdf:RDF>
      <cc:Work
         rdf:about="">
        <dc:format>image/svg+xml</dc:format>
        <dc:type
           rdf:resource="http://purl.org/dc/dcmitype/StillImage" />
        <dc:title></dc:title>
      </cc:Work>
    </rdf:RDF>
  </metadata>
  <g
     id="layer1"
     inkscape:groupmode="layer"
     inkscape:label="Layer 1">
    <path
       style="opacity:1;fill:#d0d0d0;fill-opacity:1;stroke:none;stroke-width:13.89759064;stroke-linecap:round;stroke-miterlimit:4;stroke-dasharray:none;stroke-opacity:1"
       d="M 767.23828 65.298828 C 747.97687 65.298828 747.44297 94.111328 767.23828 94.111328 L 797.71094 94.111328 C 816.47045 94.111328 816.62708 65.298828 797.71094 65.298828 L 767.23828 65.298828 z M 663.0957 110.35156 C 648.38027 110.35156 647.97238 139.16406 663.0957 139.16406 L 684.95898 139.16406 C 699.29097 139.16406 699.41063 110.35156 684.95898 110.35156 L 663.0957 110.35156 z M 723.23242 110.35156 C 708.51699 110.35156 708.1091 139.16406 723.23242 139.16406 L 732.21289 139.16406 C 732.98613 139.35084 742.375 141.82822 742.375 152.26367 C 742.375 159.80046 732.07564 162.5129 728.67383 163.20898 L 647.35938 163.20898 C 632.64395 163.20898 632.23605 192.02148 647.35938 192.02148 L 717.27734 192.02148 C 719.58111 192.7534 726.83789 195.76902 726.83789 204.93555 C 726.83789 211.87947 718.07228 214.73566 714.02344 215.68945 L 702.52148 215.68945 C 683.26008 215.68945 682.72617 244.50195 702.52148 244.50195 L 739.27344 244.50195 C 741.47581 245.18441 748.93555 248.16665 748.93555 257.44922 C 748.93555 264.92629 738.80599 267.65402 735.32227 268.37695 L 656.95703 268.37695 C 634.95709 268.37695 634.34728 297.18945 656.95703 297.18945 L 910.78125 297.18945 C 932.20794 297.18945 932.38684 268.37695 910.78125 268.37695 L 843.42578 268.37695 C 841.89701 267.98462 832.14178 265.16615 832.20703 256.98242 C 832.28134 247.65753 842.46137 245.1341 846.32617 244.50195 L 916.58789 244.50195 C 935.3474 244.50195 935.50403 215.68945 916.58789 215.68945 L 820.74414 215.68945 C 818.10127 214.89956 810.05014 211.89748 810.10938 204.46875 C 810.1824 195.30561 820.01728 192.70977 824.0293 192.02148 L 867.78711 192.02148 C 882.1191 192.02148 882.23876 163.20898 867.78711 163.20898 L 797.57812 163.20898 C 796.36988 162.90885 786.22054 160.14407 786.28711 151.79492 C 786.36747 141.71079 798.38263 139.54316 801.31055 139.16406 L 839.82031 139.16406 C 854.1523 139.16406 854.27196 110.35156 839.82031 110.35156 L 723.23242 110.35156 z "
       id="path1511" />
    <g
       id="g1616">
      <path
         style="opacity:1;fill:#d0d0d0;fill-opacity:1;stroke:none;stroke-width:13.89759064;stroke-linecap:round;stroke-miterlimit:4;stroke-dasharray:none;stroke-opacity:1"
         d="M 148.58008 -37.962891 C 133.86465 -37.962891 133.45676 -9.1503906 148.58008 -9.1503906 L 156.73047 -9.1503906 C 159.03423 -8.4184756 166.29102 -5.4028568 166.29102 3.7636719 C 166.29102 10.707597 157.5254 13.563787 153.47656 14.517578 L 84.863281 14.517578 C 65.601885 14.517578 65.067975 43.330078 84.863281 43.330078 L 166.03125 43.330078 C 168.23362 44.012538 175.69336 46.994783 175.69336 56.277344 C 175.69336 63.754416 165.5638 66.482145 162.08008 67.205078 L 85.246094 67.205078 C 63.246154 67.205078 62.636344 96.017578 85.246094 96.017578 L 329.74805 96.017578 C 351.17473 96.017578 351.35363 67.205078 329.74805 67.205078 L 270.18359 67.205078 C 268.65482 66.812743 258.89959 63.994275 258.96484 55.810547 C 259.03916 46.485656 269.21918 43.962229 273.08398 43.330078 L 298.92969 43.330078 C 317.6892 43.330078 317.84583 14.517578 298.92969 14.517578 L 260.19727 14.517578 C 257.5544 13.727684 249.50327 10.725606 249.5625 3.296875 C 249.63552 -5.8662663 259.4704 -8.4621043 263.48242 -9.1503906 L 312.12305 -9.1503906 C 326.45504 -9.1503906 326.5747 -37.962891 312.12305 -37.962891 L 148.58008 -37.962891 z "
         id="path1541" />
    </g>
    <g
       id="g1609">
      <path
         style="opacity:1;fill:#d0d0d0;fill-opacity:1;stroke:none;stroke-width:13.89759064;stroke-linecap:round;stroke-miterlimit:4;stroke-dasharray:none;stroke-opacity:1"
         d="M -252.64453 -86.791016 C -275.25428 -86.791016 -274.64447 -57.978516 -252.64453 -57.978516 L -229.51562 -57.978516 C -226.02667 -57.253829 -215.9082 -54.525891 -215.9082 -47.052734 C -215.9082 -38.625098 -222.04835 -35.39612 -224.83594 -34.357422 L -260.59961 -34.357422 C -275.72293 -34.357422 -275.31504 -5.5449219 -260.59961 -5.5449219 L -251.97656 -5.5449219 C -248.84688 -4.9310868 -238.00586 -2.2565762 -238.00586 5.4609375 C -238.00586 16.339867 -248.3125 18.599609 -248.3125 18.599609 L -151.91016 18.628906 L -301.33789 18.628906 C -321.1332 18.628906 -320.59929 47.441406 -301.33789 47.441406 L -87.271484 47.441406 C -68.355344 47.441406 -68.511974 18.628906 -87.271484 18.628906 L -139.0918 18.628906 C -139.29361 18.612577 -154.64348 17.334114 -154.73438 5.9277344 C -154.80511 -2.9431656 -143.20703 -5.5449219 -143.20703 -5.5449219 L -97.056641 -5.5449219 C -82.604991 -5.5449219 -82.724651 -34.357422 -97.056641 -34.357422 L -119.87695 -34.357422 C -124.38946 -35.342384 -132.57042 -38.26694 -132.63672 -46.585938 C -132.70197 -54.769666 -122.94674 -57.586181 -121.41797 -57.978516 L -8.1425781 -57.978516 C 13.463012 -57.978516 13.284112 -86.791016 -8.1425781 -86.791016 L -252.64453 -86.791016 z M -303.41406 -34.357422 C -318.53738 -34.357422 -318.12949 -5.5449219 -303.41406 -5.5449219 L -293.51367 -5.5449219 C -279.06202 -5.5449219 -279.18168 -34.357422 -293.51367 -34.357422 L -303.41406 -34.357422 z M -56.203125 -34.357422 C -71.326445 -34.357422 -70.918555 -5.5449219 -56.203125 -5.5449219 L -10.394531 -5.5449219 C 4.0571209 -5.5449219 3.9374609 -34.357422 -10.394531 -34.357422 L -56.203125 -34.357422 z "
         id="path1531" />
    </g>
    <g
       id="g1626">
      <path
         style="opacity:1;fill:#d0d0d0;fill-opacity:1;stroke:none;stroke-width:13.89759064;stroke-linecap:round;stroke-miterlimit:4;stroke-dasharray:none;stroke-opacity:1"
         d="M 279.24414 -238.11133 C 264.52871 -238.11133 264.12082 -209.29883 279.24414 -209.29883 L 312.61914 -209.29883 C 312.66414 -209.28892 322.91797 -207.01914 322.91797 -196.16406 C 322.91797 -189.00979 313.64764 -186.20657 309.78711 -185.3418 L 269.18555 -185.3418 C 254.47012 -185.3418 254.06223 -156.5293 269.18555 -156.5293 L 279.29297 -156.5293 C 280.03076 -156.35194 289.46289 -153.88725 289.46289 -143.42969 C 289.46289 -136.52758 280.79013 -133.66058 276.70898 -132.68945 L 269.18555 -132.68945 C 254.47012 -132.68945 254.06223 -103.87695 269.18555 -103.87695 L 336.53711 -103.87695 C 350.8691 -103.87695 350.98876 -132.68945 336.53711 -132.68945 L 324.73242 -132.68945 C 322.05002 -133.49712 314.08168 -136.50357 314.14062 -143.89648 C 314.22129 -154.01826 326.31327 -156.16213 329.18359 -156.5293 L 422.49023 -156.5293 C 436.82222 -156.5293 436.94188 -185.3418 422.49023 -185.3418 L 417.04102 -185.3418 C 414.6183 -186.0392 406.12876 -189.01905 406.18945 -196.63086 C 406.27538 -207.41378 419.8675 -209.12757 421.54102 -209.29883 L 444.63281 -209.29883 C 458.9648 -209.29883 459.08446 -238.11133 444.63281 -238.11133 L 279.24414 -238.11133 z M 364.88867 -132.68945 C 350.17324 -132.68945 349.76535 -103.87695 364.88867 -103.87695 L 402.75781 -103.87695 C 405.74925 -102.21183 409.58008 -98.795424 409.58008 -92.160156 C 409.58008 -84.683084 399.45052 -81.955355 395.9668 -81.232422 L 274.69922 -81.232422 C 252.69928 -81.232422 252.08947 -52.419922 274.69922 -52.419922 L 519.20117 -52.419922 C 540.62786 -52.419922 540.80676 -81.232422 519.20117 -81.232422 L 504.07031 -81.232422 C 502.54154 -81.624757 492.78631 -84.443225 492.85156 -92.626953 C 492.90308 -99.091374 497.86574 -102.3037 502.19336 -103.87695 L 528.43164 -103.87695 C 542.76363 -103.87695 542.88329 -132.68945 528.43164 -132.68945 L 364.88867 -132.68945 z "
         id="path1521" />
    </g>
    <g
       id="g1600">
      <path
         style="opacity:1;fill:#d0d0d0;fill-opacity:1;stroke:none;stroke-width:13.89759064;stroke-linecap:round;stroke-miterlimit:4;stroke-dasharray:none;stroke-opacity:1"
         d="M 92.916016 163.20898 C 78.200589 163.20898 77.792697 192.02148 92.916016 192.02148 L 105.94922 192.02148 C 108.25298 192.7534 115.50977 195.76902 115.50977 204.93555 C 115.50977 211.87947 106.74415 214.73566 102.69531 215.68945 L 52.177734 215.68945 C 32.916325 215.68945 32.382424 244.50195 52.177734 244.50195 L 127.94531 244.50195 C 130.14768 245.18441 137.60742 248.16665 137.60742 257.44922 C 137.60742 264.92629 127.47786 267.65402 123.99414 268.37695 L 100.87109 268.37695 C 78.871145 268.37695 78.261335 297.18945 100.87109 297.18945 L 345.37305 297.18945 C 366.79974 297.18945 366.97864 268.37695 345.37305 268.37695 L 232.09766 268.37695 C 230.56888 267.98462 220.81366 265.16615 220.87891 256.98242 C 220.95322 247.65753 231.13325 245.1341 234.99805 244.50195 L 266.24414 244.50195 C 285.00365 244.50195 285.16028 215.68945 266.24414 215.68945 L 209.41602 215.68945 C 206.77315 214.89956 198.72202 211.89748 198.78125 204.46875 C 198.85427 195.30561 208.68915 192.70977 212.70117 192.02148 L 256.45898 192.02148 C 270.79097 192.02148 270.91063 163.20898 256.45898 163.20898 L 92.916016 163.20898 z M 308.25391 215.68945 C 288.9925 215.68945 288.4586 244.50195 308.25391 244.50195 L 338.72656 244.50195 C 357.48607 244.50195 357.6427 215.68945 338.72656 215.68945 L 308.25391 215.68945 z "
         id="rect1438" />
    </g>
    <g
       id="g1646"
       transform="translate(-683.62863)">
      <path
         sodipodi:nodetypes="sssss"
         inkscape:connector-curvature="0"
         id="path1632"
         d="m -97.05673,-5.545895 c 14.45165,0 14.33199,-28.8125 0,-28.8125 h -163.5435 c -15.12332,0 -14.71543,28.8125 0,28.8125 z"
         style="opacity:1;fill:#d0d0d0;fill-opacity:1;stroke:none;stroke-width:13.89759064;stroke-linecap:round;stroke-miterlimit:4;stroke-dasharray:none;stroke-opacity:1" />
      <path
         style="opacity:1;fill:#d0d0d0;fill-opacity:1;stroke:none;stroke-width:15.89999962;stroke-linecap:round;stroke-miterlimit:4;stroke-dasharray:none;stroke-opacity:1"
         d="m -87.2711,47.442275 c 18.91614,0 18.75951,-28.8125 0,-28.8125 h -214.06641 c -19.79531,0 -19.2614,28.8125 0,28.8125 z"
         id="path1634"
         inkscape:connector-curvature="0"
         sodipodi:nodetypes="sssss" />
      <path
         sodipodi:nodetypes="sssss"
         inkscape:connector-curvature="0"
         id="path1636"
         d="m -8.1421097,-57.978515 c 21.6055897,0 21.4266897,-28.8125 0,-28.8125 H -252.644 c -22.60975,0 -21.99994,28.8125 0,28.8125 z"
         style="opacity:1;fill:#d0d0d0;fill-opacity:1;stroke:none;stroke-width:16.99276161;stroke-linecap:round;stroke-miterlimit:4;stroke-dasharray:none;stroke-opacity:1" />
      <path
         sodipodi:nodetypes="csccscc"
         inkscape:connector-curvature="0"
         id="path1638"
         d="m -248.31254,18.59881 c 0,0 10.30744,-2.25857 10.30744,-13.1375 0,-9.01115 -14.86085,-11.17062 -14.86085,-11.17062 l 109.65893,0.16397 c 0,0 -11.59739,2.60308 -11.52666,11.47398 0.0915,11.4817 15.67705,12.70487 15.67705,12.70487 z"
         style="fill:#d0d0d0;fill-opacity:1;stroke:none;stroke-width:1px;stroke-linecap:butt;stroke-linejoin:miter;stroke-opacity:1" />
      <path
         style="fill:#d0d0d0;fill-opacity:1;stroke:none;stroke-width:1px;stroke-linecap:butt;stroke-linejoin:miter;stroke-opacity:1"
         d="m -226.21545,-33.91498 c 0,0 10.30744,-2.25857 10.30744,-13.137495 0,-9.01115 -14.86085,-11.17062 -14.86085,-11.17062 l 109.65893,0.16397 c 0,0 -11.59739,2.60308 -11.52666,11.47398 0.0915,11.481695 15.67705,12.704865 15.67705,12.704865 z"
         id="path1640"
         inkscape:connector-curvature="0"
         sodipodi:nodetypes="csccscc" />
      <path
         style="opacity:1;fill:#d0d0d0;fill-opacity:1;stroke:none;stroke-width:13.89759064;stroke-linecap:round;stroke-miterlimit:4;stroke-dasharray:none;stroke-opacity:1"
         d="m -10.394717,-5.545895 c 14.4516522,0 14.3319922,-28.8125 0,-28.8125 h -45.807459 c -15.12332,0 -14.71543,28.8125 0,28.8125 z"
         id="path1642"
         inkscape:connector-curvature="0"
         sodipodi:nodetypes="sssss" />
      <path
         sodipodi:nodetypes="sssss"
         inkscape:connector-curvature="0"
         id="path1644"
         d="m -293.51364,-5.545895 c 14.45165,0 14.33199,-28.8125 0,-28.8125 h -9.89969 c -15.12332,0 -14.71543,28.8125 0,28.8125 z"
         style="opacity:1;fill:#d0d0d0;fill-opacity:1;stroke:none;stroke-width:13.89759064;stroke-linecap:round;stroke-miterlimit:4;stroke-dasharray:none;stroke-opacity:1" />
    </g>
  </g>
</svg>

<svg xmlns="http://www.w3.org/2000/svg" width="500" height="500"><path d="M767.238 65.299c-19.261 0-19.795 28.812 0 28.812h30.473c18.76 0 18.916-28.812 0-28.812h-30.473zm-104.142 45.053c-14.716 0-15.124 28.812 0 28.812h21.863c14.332 0 14.452-28.812 0-28.812h-21.863zm60.136 0c-14.715 0-15.123 28.812 0 28.812h8.98c.774.187 10.163 2.664 10.163 13.1 0 7.536-10.3 10.249-13.701 10.945h-81.315c-14.715 0-15.123 28.812 0 28.812h69.918c2.304.732 9.56 3.748 9.56 12.915 0 6.943-8.765 9.8-12.814 10.753h-11.502c-19.26 0-19.795 28.813 0 28.813h36.752c2.203.682 9.663 3.665 9.663 12.947 0 7.477-10.13 10.205-13.614 10.928h-78.365c-22 0-22.61 28.812 0 28.812h253.824c21.427 0 21.606-28.812 0-28.812h-67.355c-1.529-.392-11.284-3.21-11.219-11.395.074-9.324 10.254-11.848 14.12-12.48h70.26c18.76 0 18.917-28.813 0-28.813h-95.843c-2.643-.79-10.694-3.792-10.635-11.22.073-9.163 9.908-11.76 13.92-12.448h43.758c14.332 0 14.452-28.812 0-28.812h-70.209c-1.208-.3-11.357-3.065-11.29-11.414.08-10.084 12.095-12.252 15.023-12.63h38.51c14.331 0 14.451-28.813 0-28.813H723.231zM148.58-37.963c-14.715 0-15.123 28.813 0 28.813h8.15c2.304.732 9.561 3.747 9.561 12.914 0 6.944-8.766 9.8-12.814 10.754H84.863c-19.261 0-19.795 28.812 0 28.812h81.168c2.203.683 9.662 3.665 9.662 12.947 0 7.477-10.13 10.205-13.613 10.928H85.246c-22 0-22.61 28.813 0 28.813h244.502c21.427 0 21.606-28.813 0-28.813h-59.564c-1.53-.392-11.284-3.21-11.22-11.394.075-9.325 10.255-11.849 14.12-12.48h25.846c18.76 0 18.916-28.813 0-28.813h-38.733c-2.643-.79-10.694-3.792-10.635-11.221.074-9.163 9.908-11.76 13.92-12.447h48.641c14.332 0 14.452-28.813 0-28.813H148.58zM-252.645-86.791c-22.61 0-22 28.812 0 28.812h23.13c3.488.725 13.607 3.453 13.607 10.926 0 8.428-6.14 11.657-8.928 12.696H-260.6c-15.123 0-14.715 28.812 0 28.812h8.623c3.13.614 13.971 3.288 13.971 11.006 0 10.879-10.306 13.139-10.306 13.139l96.402.029h-149.428c-19.795 0-19.261 28.812 0 28.812H-87.27c18.916 0 18.759-28.812 0-28.812h-51.82c-.203-.016-15.552-1.295-15.643-12.701-.071-8.871 11.527-11.473 11.527-11.473h46.15c14.452 0 14.332-28.812 0-28.812h-22.82c-4.512-.985-12.693-3.91-12.76-12.229-.065-8.184 9.69-11 11.219-11.393H-8.143c21.606 0 21.427-28.812 0-28.812h-244.502zm-50.77 52.434c-15.122 0-14.714 28.812 0 28.812h9.901c14.452 0 14.332-28.812 0-28.812h-9.9zm247.212 0c-15.123 0-14.716 28.812 0 28.812h45.808c14.452 0 14.332-28.812 0-28.812h-45.808zM279.244-238.111c-14.715 0-15.123 28.812 0 28.812h33.375c.045.01 10.299 2.28 10.299 13.135 0 7.154-9.27 9.957-13.13 10.822h-40.602c-14.716 0-15.124 28.813 0 28.813h10.107c.738.177 10.17 2.642 10.17 13.1 0 6.901-8.673 9.768-12.754 10.74h-7.523c-14.716 0-15.124 28.812 0 28.812h67.351c14.332 0 14.452-28.812 0-28.812h-11.805c-2.682-.808-10.65-3.815-10.591-11.207.08-10.122 12.172-12.266 15.043-12.633h93.306c14.332 0 14.452-28.813 0-28.813h-5.449c-2.423-.697-10.912-3.677-10.852-11.289.086-10.783 13.678-12.497 15.352-12.668h23.092c14.332 0 14.451-28.812 0-28.812H279.244zM364.89-132.69c-14.716 0-15.124 28.812 0 28.812h37.869c2.991 1.665 6.822 5.082 6.822 11.717 0 7.477-10.13 10.205-13.613 10.928H274.699c-22 0-22.61 28.812 0 28.812h244.502c21.427 0 21.606-28.812 0-28.812h-15.13c-1.53-.393-11.285-3.211-11.22-11.395.052-6.464 5.015-9.677 9.342-11.25h26.239c14.332 0 14.451-28.812 0-28.812H364.889zM92.916 163.209c-14.715 0-15.123 28.812 0 28.812h13.033c2.304.732 9.56 3.748 9.56 12.915 0 6.943-8.765 9.8-12.814 10.753H52.178c-19.262 0-19.796 28.813 0 28.813h75.767c2.203.682 9.662 3.665 9.662 12.947 0 7.477-10.13 10.205-13.613 10.928h-23.123c-22 0-22.61 28.812 0 28.812h244.502c21.427 0 21.606-28.812 0-28.812H232.098c-1.53-.392-11.284-3.21-11.22-11.395.075-9.324 10.255-11.848 14.12-12.48h31.246c18.76 0 18.916-28.813 0-28.813h-56.828c-2.643-.79-10.694-3.792-10.635-11.22.073-9.163 9.908-11.76 13.92-12.448h43.758c14.332 0 14.452-28.812 0-28.812H92.916zm215.338 52.48c-19.262 0-19.795 28.813 0 28.813h30.473c18.76 0 18.916-28.813 0-28.813h-30.473z" fill="#d0d0d0"/><g fill="#d0d0d0"><path d="M-780.685-5.546c14.451 0 14.332-28.812 0-28.812H-944.23c-15.123 0-14.715 28.812 0 28.812zM-770.9 47.442c18.916 0 18.76-28.812 0-28.812h-214.066c-19.795 0-19.262 28.812 0 28.812zM-691.77-57.979c21.605 0 21.426-28.812 0-28.812h-244.503c-22.61 0-22 28.812 0 28.812z"/><path d="M-931.941 18.599s10.307-2.259 10.307-13.138c0-9.01-14.86-11.17-14.86-11.17l109.658.164s-11.597 2.603-11.526 11.474c.091 11.481 15.677 12.705 15.677 12.705zM-909.844-33.915s10.307-2.259 10.307-13.137c0-9.012-14.86-11.171-14.86-11.171l109.658.164s-11.597 2.603-11.526 11.474c.091 11.482 15.677 12.705 15.677 12.705zM-694.023-5.546c14.451 0 14.332-28.812 0-28.812h-45.808c-15.123 0-14.715 28.812 0 28.812zM-977.142-5.546c14.451 0 14.332-28.812 0-28.812h-9.9c-15.123 0-14.715 28.812 0 28.812z"/></g></svg>
